X:1
T:Title
%%score { 1 | 2 }
L:1/8
M:3/4
K:G
V:1 treble nm="Grand Piano"
V:2 treble 
V:1
 z2 z2[Q:1/4=100] [Bd]>[Ac] | B2 B2 B>A | G2 D2 G>A | B3 B (3dc[DGB] |[M:2/4] [DFA]4 | %5
[M:1/4] [DBd]>[DAc] |[M:3/4] [DGB]2 [DGB]2 [DGB]>[CDA] | [B,DG]2 [B,D]2 [DG]>[EGA] | %8
 [DGB]3 [DAc] [DGB]>[CFA] |[M:2/4] [B,G]4 |[M:1/4] [FA]>[GB] |[M:3/4] [Ac]2 [Ac]2 G>A | B2 B2 G>B | %13
 d3 e (3dcB |[M:2/4] [FA]4 |[M:1/4] [Fd]>[Ac] |[M:3/4] B2 B2 B>A | G2 D2 [DG]>[EGA] | %18
 [DGB]3 [DAc] [DGB]>[CFA] |[M:2/4] [G,B,G]4 |] %20
V:2
 z2 z2 [G,D]>[G,D] | [G,DG]2 [G,DG]2 [G,DG]>[G,CD] | [G,B,D]2 [G,B,]2 [G,B,]>[G,CF] | %3
 [G,DG]3 [G,DG] (3[B,D-G-][A,DG][K:bass]G, |[M:2/4] D,4 |[M:1/4] G,>G, |[M:3/4] G,2 G,2 G,>G, | %7
 G,2 G,2 B,,>C, | D,3 D, D,>D, |[M:2/4] G,4 |[M:1/4] [D,D]>[D,D] | %11
[M:3/4] [D,D]2 [D,D]2 [G,B,]>[K:treble][G,CG] | [G,DG]2 [G,DG]2 [G,B,D]>[G,DG] | %13
 [G,B,G]3 [G,CG] (3[B,D-G-][A,DG][G,DG] |[M:2/4][K:bass] [D,D]4 |[M:1/4] [D,A,]>[D,D] | %16
[M:3/4][K:treble] [G,DG]2 [G,DG]2 [G,DG]>[G,CD] | [G,B,D]2[K:bass] [G,B,]2 B,,>C, | D,3 D, D,>D, | %19
[M:2/4] G,,4 |] %20

